build/system/HomeSolid.svg

<svg xmlns="http://www.w3.org/2000/svg" fill="none" viewBox="0 0 24 24" focusable="false"><path d="M0 0H24V24H0z"/><path fill="#74767B" d="M11.0805 3.91921C11.5882 3.41153 12.4113 3.41153 12.919 3.91921L20.9998 12C21.2713 12.2348 21.3011 12.6452 21.0663 12.9168C20.8316 13.1883 20.4211 13.2182 20.1495 12.9834L18.9998 11.8336L18.9998 19.7C18.9998 20.4179 18.4178 21 17.6998 21L14.6998 21C14.3132 21 13.9998 20.6866 13.9998 20.3L13.9998 15.3C13.9998 14.582 13.4178 14 12.6998 14L11.2998 14C10.5818 14 9.99979 14.582 9.99979 15.3L9.99979 20.3C9.99979 20.6866 9.68639 21 9.29979 21L6.29979 21C5.58182 21 4.99979 20.4179 4.99979 19.7L4.99979 11.8336L3.85004 12.9834C3.57849 13.2182 3.16801 13.1883 2.93322 12.9168C2.69843 12.6452 2.72823 12.2348 2.99978 12L5.99979 8.99997L11.0805 3.91921Z"/></svg>

<svg xmlns="http://www.w3.org/2000/svg" fill="none" viewBox="0 0 24 24" focusable="false"><path fill="#74767B" d="M11.08 3.91c.5-.5 1.33-.5 1.83 0L21 12c.27.23.3.64.06.91-.23.27-.64.3-.92.07L19 11.83v7.87c0 .71-.59 1.3-1.31 1.3h-3c-.38 0-.69-.32-.69-.71V15.3c0-.72-.59-1.3-1.31-1.3h-1.4c-.71 0-1.29.58-1.29 1.3v4.99c0 .39-.32.71-.71.71h-3C5.58 21 5 20.41 5 19.7v-7.87l-1.15 1.15c-.28.23-.69.2-.92-.07A.63.63 0 0 1 3 12l3-3.01z"/></svg>
